ui/StatusQ/src/assets/img/icons/images_icon.svg

<svg fill="none" height="18" viewBox="0 0 20 18" width="20" xmlns="http://www.w3.org/2000/svg"><g clip-rule="evenodd" fill="#939ba1" fill-rule="evenodd"><path d="m16.5 6.5c0 1.65685-1.3431 3-3 3s-3-1.34315-3-3 1.3431-3 3-3 3 1.34315 3 3zm-1.5 0c0 .82843-.6716 1.5-1.5 1.5s-1.5-.67157-1.5-1.5.6716-1.5 1.5-1.5 1.5.67157 1.5 1.5z"/><path d="m4 0c-2.20914 0-4 1.79086-4 4v10c0 2.2091 1.79086 4 4 4h12c2.2091 0 4-1.7909 4-4v-10c0-2.20914-1.7909-4-4-4zm12 1.5h-12c-1.38071 0-2.5 1.11929-2.5 2.5v3.23223c0 .44545.53857.66854.85355.35356l1.40901-1.40901c.68342-.68342 1.79146-.68342 2.47488 0l10.08066 10.08072c.1191.119.2913.1736.4514.1218 1.0042-.3245 1.7305-1.2671 1.7305-2.3793v-10c0-1.38071-1.1193-2.5-2.5-2.5zm-14.46967 9.0303c-.0188.0188-.03033.0439-.03033.0705v3.3992c0 1.3807 1.11929 2.5 2.5 2.5h9.2322c.4455 0 .6686-.5386.3536-.8536l-8.40902-8.40896c-.09764-.09764-.25593-.09763-.35356 0z"/></g></svg>

<svg width="20" height="18" viewBox="0 0 20 18" fill="none" xmlns="http://www.w3.org/2000/svg">
<path fill-rule="evenodd" clip-rule="evenodd" d="M16.5 6.5C16.5 8.15685 15.1569 9.5 13.5 9.5C11.8431 9.5 10.5 8.15685 10.5 6.5C10.5 4.84315 11.8431 3.5 13.5 3.5C15.1569 3.5 16.5 4.84315 16.5 6.5ZM15 6.5C15 7.32843 14.3284 8 13.5 8C12.6716 8 12 7.32843 12 6.5C12 5.67157 12.6716 5 13.5 5C14.3284 5 15 5.67157 15 6.5Z" fill="#939BA1"/>
<path fill-rule="evenodd" clip-rule="evenodd" d="M4 0C1.79086 0 0 1.79086 0 4V14C0 16.2091 1.79086 18 4 18H16C18.2091 18 20 16.2091 20 14V4C20 1.79086 18.2091 0 16 0H4ZM16 1.5H4C2.61929 1.5 1.5 2.61929 1.5 4V7.23223C1.5 7.67768 2.03857 7.90077 2.35355 7.58579L3.76256 6.17678C4.44598 5.49336 5.55402 5.49336 6.23744 6.17678L16.3181 16.2575C16.4372 16.3765 16.6094 16.4311 16.7695 16.3793C17.7737 16.0548 18.5 15.1122 18.5 14V4C18.5 2.61929 17.3807 1.5 16 1.5ZM1.53033 10.5303C1.51153 10.5491 1.5 10.5742 1.5 10.6008V14C1.5 15.3807 2.61929 16.5 4 16.5H13.2322C13.6777 16.5 13.9008 15.9614 13.5858 15.6464L5.17678 7.23744C5.07914 7.1398 4.92085 7.13981 4.82322 7.23744L1.53033 10.5303Z" fill="#939BA1"/>
</svg>
